!!!OTL: Ye Gentlemen of England
!!!ONM: 66.
**kern
*clefG2
*k[b-e-a-d-]
*A-:
*M6/8
*MM84
{8e-
=1
4a-
8b-
4cc
8cc
=2
8b-
4a-
4f}
{8b-
=3
8cc
4ee-
(8cc
8b-)
(16ee-
16dd-)
=4
8cc
4cc
4b-}
{8a-
=5
8cc
4ee-
4cc
(16ee-
16dd-)
=6
4cc
8cc
(16cc
8.b-)}
{8a-
=7
(8a-
8f)
8f
4f
8e-
=8
4f
8f
4e-}
{8e-
=9
4a-
8b-
4cc
8a-
=10
8cc
4ff
4.ee-}
=11
{4ee-
8a-
4cc
8ee-
=12
4cc
8b-
4a-}
==
*-
!!!CNT: Folksongs of Maritime Canada
!!!MRD: 1928///-1932///
!!!OCL: Helen Creighton
!!!YOR: Songs and Ballads from Nova Scotia
!!!PPR: J.M. Dent & Sons, Limited
!!!PPP: Toronto, Canada
!!!PDT: 1932///
!!!reprint: Dover Publications, 1992: ISBN 0-486-21703-5
!!!ENC1: Craig Stuart Sapp (music and bibliographic data)                       
!!!ENC2: Marcus Pearce (phrase markings and key designations)                   
!!!ENC3: Darrell Conklin (phrase markings and key designations)   
!!!END: 2002/04/10/
!!!EEV: 2004/06/05
!!!MPN: Mr. Ben Henneberry
!!!PPG: 136
!!!EFL: 67/152
!!!ARE: Canada; Nova Scotia
!!!verses: 6
!!!VTS: 2093091248
